icons/terminal.svg

<?xml version="1.0" encoding="UTF-8" standalone="no"?>
<svg
   width="64"
   height="64"
   version="1"
   id="svg24"
   sodipodi:docname="terminal.svg"
   inkscape:version="1.2.2 (732a01da63, 2022-12-09)"
   xmlns:inkscape="http://www.inkscape.org/namespaces/inkscape"
   xmlns:sodipodi="http://sodipodi.sourceforge.net/DTD/sodipodi-0.dtd"
   xmlns="http://www.w3.org/2000/svg"
   xmlns:svg="http://www.w3.org/2000/svg">
  <defs
     id="defs28" />
  <sodipodi:namedview
     id="namedview26"
     pagecolor="#ffffff"
     bordercolor="#666666"
     borderopacity="1.0"
     inkscape:showpageshadow="2"
     inkscape:pageopacity="0.0"
     inkscape:pagecheckerboard="0"
     inkscape:deskcolor="#d1d1d1"
     showgrid="false"
     inkscape:zoom="22.234375"
     inkscape:cx="32"
     inkscape:cy="32.022488"
     inkscape:window-width="1920"
     inkscape:window-height="1009"
     inkscape:window-x="-8"
     inkscape:window-y="-8"
     inkscape:window-maximized="1"
     inkscape:current-layer="svg24" />
  <rect
     style="opacity:0.2"
     width="56"
     height="50"
     x="4"
     y="8"
     rx="4.2"
     ry="4.167"
     id="rect2" />
  <rect
     style="fill:#4f4f4f"
     width="56"
     height="50"
     x="4"
     y="7"
     rx="4.2"
     ry="4.167"
     id="rect4" />
  <path
     style="opacity:0.1;fill:#ffffff"
     d="M 8.1992188 7 C 5.8724187 7 4 8.8596354 4 11.167969 L 4 12.167969 C 4 9.8596354 5.8724187 8 8.1992188 8 L 55.800781 8 C 58.127581 8 60 9.8596354 60 12.167969 L 60 11.167969 C 60 8.8596354 58.127581 7 55.800781 7 L 8.1992188 7 z"
     id="path18" />
  <g
     id="g395"
     transform="translate(8,-2.9983931)">
    <g
       id="g389">
      <rect
         style="opacity:0.2"
         width="17"
         height="6"
         x="26"
         y="30"
         rx="1.4170001"
         ry="1.5"
         id="rect6" />
      <rect
         style="fill:#c4f1c5;fill-opacity:1"
         width="17"
         height="6"
         x="26"
         y="29"
         rx="1.4170001"
         ry="1.5"
         id="rect8" />
    </g>
    <path
       style="opacity:0.2;fill:#ffffff"
       d="M 27.417969,29 C 26.632951,29 26,29.669 26,30.5 v 1 C 26,30.669 26.632951,30 27.417969,30 H 41.582031 C 42.367049,30 43,30.669 43,31.5 v -1 C 43,29.669 42.367049,29 41.582031,29 Z"
       id="path20" />
  </g>
  <g
     id="g385"
     transform="matrix(1.3326999,0,0,1.3079347,-3.3256756,-4.0036462)">
    <g
       id="g365"
       transform="translate(-0.07720151,0.0117018)">
      <rect
         style="opacity:0.2"
         width="16.763"
         height="5.5879998"
         x="-11.560702"
         y="24.667334"
         rx="1.397"
         ry="1.397"
         transform="matrix(0.72400601,-0.68979366,0.72400601,0.68979366,0,0)"
         id="rect10" />
      <rect
         style="fill:#24873b"
         width="16.763"
         height="5.5879998"
         x="-10.840703"
         y="23.937334"
         rx="1.397"
         ry="1.397"
         transform="matrix(0.72400601,-0.68979366,0.72400601,0.68979366,0,0)"
         id="rect12" />
    </g>
    <g
       id="g375">
      <g
         id="g369">
        <rect
           style="opacity:0.2"
           width="16.763"
           height="5.5879998"
           x="19.030001"
           y="-6.04"
           rx="1.397"
           ry="1.397"
           transform="matrix(0.72400601,0.68979366,0.72400601,-0.68979366,0,0)"
           id="rect14" />
        <rect
           style="fill:#33c839"
           width="16.763"
           height="5.5879998"
           x="18.309999"
           y="-5.3099999"
           rx="1.397"
           ry="1.397"
           transform="matrix(0.72400601,0.68979366,0.72400601,-0.68979366,0,0)"
           id="rect16" />
      </g>
      <path
         style="opacity:0.2;fill:#ffffff"
         d="m 13.457031,13.001953 c -0.365634,0 -0.729598,0.133462 -1.009765,0.400391 l -2.023438,1.927734 c -0.416972,0.397269 -0.5239183,0.973329 -0.320312,1.462891 0.07,-0.168321 0.176949,-0.326302 0.320312,-0.462891 l 2.023438,-1.927734 c 0.560335,-0.533858 1.461148,-0.533858 2.021484,0 l 10.113281,9.634765 c 0.143832,0.137036 0.250321,0.295904 0.320313,0.464844 0.203606,-0.489562 0.09666,-1.067575 -0.320313,-1.464844 L 14.46875,13.402344 c -0.280168,-0.266929 -0.646085,-0.400391 -1.011719,-0.400391 z"
         id="path22" />
    </g>
  </g>
</svg>

<svg xmlns="http://www.w3.org/2000/svg" width="64" height="64" version="1">
 <rect style="opacity:0.2" width="56" height="50" x="4" y="8" rx="4.2" ry="4.167"/>
 <rect style="fill:#4f4f4f" width="56" height="50" x="4" y="7" rx="4.2" ry="4.167"/>
 <rect style="opacity:0.2" width="17" height="6" x="26" y="30" rx="1.417" ry="1.5"/>
 <rect style="fill:#33c839" width="17" height="6" x="26" y="29" rx="1.417" ry="1.5"/>
 <rect style="opacity:0.2" width="16.763" height="5.588" x="-17.21" y="30.21" rx="1.397" ry="1.397" transform="matrix(0.72400601,-0.68979366,0.72400601,0.68979366,0,0)"/>
 <rect style="fill:#24873b" width="16.763" height="5.588" x="-16.49" y="29.48" rx="1.397" ry="1.397" transform="matrix(0.72400601,-0.68979366,0.72400601,0.68979366,0,0)"/>
 <rect style="opacity:0.2" width="16.763" height="5.588" x="19.03" y="-6.04" rx="1.397" ry="1.397" transform="matrix(0.72400601,0.68979366,0.72400601,-0.68979366,0,0)"/>
 <rect style="fill:#33c839" width="16.763" height="5.588" x="18.31" y="-5.31" rx="1.397" ry="1.397" transform="matrix(0.72400601,0.68979366,0.72400601,-0.68979366,0,0)"/>
 <path style="opacity:0.1;fill:#ffffff" d="M 8.1992188 7 C 5.8724187 7 4 8.8596354 4 11.167969 L 4 12.167969 C 4 9.8596354 5.8724187 8 8.1992188 8 L 55.800781 8 C 58.127581 8 60 9.8596354 60 12.167969 L 60 11.167969 C 60 8.8596354 58.127581 7 55.800781 7 L 8.1992188 7 z"/>
 <path style="fill:#ffffff;opacity:0.2" d="M 27.417969 29 C 26.632951 29 26 29.669 26 30.5 L 26 31.5 C 26 30.669 26.632951 30 27.417969 30 L 41.582031 30 C 42.367049 30 43 30.669 43 31.5 L 43 30.5 C 43 29.669 42.367049 29 41.582031 29 L 27.417969 29 z"/>
 <path style="fill:#ffffff;opacity:0.2" d="M 13.457031 13.001953 C 13.091397 13.001953 12.727433 13.135415 12.447266 13.402344 L 10.423828 15.330078 C 10.006856 15.727347 9.8999097 16.303407 10.103516 16.792969 C 10.173519 16.624648 10.280465 16.466667 10.423828 16.330078 L 12.447266 14.402344 C 13.007601 13.868486 13.908414 13.868486 14.46875 14.402344 L 24.582031 24.037109 C 24.725863 24.174145 24.832352 24.333013 24.902344 24.501953 C 25.10595 24.012391 24.999004 23.434378 24.582031 23.037109 L 14.46875 13.402344 C 14.188582 13.135415 13.822665 13.001953 13.457031 13.001953 z"/>
</svg>
